X:1
T:Master McGrath
M:3/4
L:1/4
K:C
 C| C E G| G F/2F/2 D| D C B,| C z C| C E G| c c c| B G G| G2 z/2 G/2|\
 c3/2 c/2 c| c G E| F G A| G z C/2D/2| E3/2 E/2 E| G F D| D C B,| C2||\
